Newaita-dark/apps/64/com.github.bartzaalberg.alias.svg

<svg height="64pt" viewBox="0 0 64 64" width="64pt" xmlns="http://www.w3.org/2000/svg" xmlns:xlink="http://www.w3.org/1999/xlink"><linearGradient id="a"><stop offset="0" stop-opacity=".313725"/><stop offset=".222222" stop-opacity=".27451"/><stop offset="1" stop-opacity="0"/></linearGradient><radialGradient id="b" cx="450.90894" cy="189.57936" gradientTransform="matrix(.00000035 -.156265 -.281277 -.0000002 89.046304 127.190664)" gradientUnits="userSpaceOnUse" r="21.166656" xlink:href="#a"/><radialGradient id="c" cx="450.90894" cy="189.57936" gradientTransform="matrix(-.00000035 .156265 .281277 .0000002 -25.540241 -15.054962)" gradientUnits="userSpaceOnUse" r="21.166656" xlink:href="#a"/><radialGradient id="d" cx="450.90894" cy="189.57936" gradientTransform="matrix(-.00000035 -.156265 .281277 -.0000002 -25.540241 127.190664)" gradientUnits="userSpaceOnUse" r="21.166656" xlink:href="#a"/><radialGradient id="e" cx="450.90894" cy="189.57936" gradientTransform="matrix(.00000035 .156265 -.281277 .0000002 89.0463 -15.054964)" gradientUnits="userSpaceOnUse" r="21.166656" xlink:href="#a"/><linearGradient id="f" gradientTransform="matrix(.0267201 0 0 .125012 24.930772 26.877567)" gradientUnits="userSpaceOnUse" x1="255.32306" x2="255.32304" y1="233.5" y2="254.66666"><stop offset="0" stop-opacity=".27451"/><stop offset="1" stop-opacity="0"/></linearGradient><linearGradient id="g" gradientUnits="userSpaceOnUse" x1="254" x2="254" y1="-168.66667" y2="233.5"><stop offset="0" stop-color="#64b5f6"/><stop offset="1" stop-color="#42a5f5"/></linearGradient><linearGradient id="h" gradientUnits="userSpaceOnUse" x1="31.104005" x2="31.104005" y1="56.06789909502" y2="5.79222477969"><stop offset="0" stop-color="#bdbdbd"/><stop offset="1" stop-color="#e0e0e0"/></linearGradient><path d="m36.382812 56.066406h5.292969v-2.644531h-5.292969zm0 0" fill="url(#b)"/><path d="m27.121094 56.066406h-5.289063v2.648438h5.289063zm0 0" fill="url(#c)"/><path d="m27.121094 56.066406h-5.289063v-2.644531h5.289063zm0 0" fill="url(#d)"/><path d="m36.382812 56.066406h5.292969v2.648438h-5.292969zm0 0" fill="url(#e)"/><path d="m27.121094 55.40625h9.261718v3.308594h-9.261718zm0 0" fill="url(#f)"/><path d="m254.006994-168.660675c111.051895 0 201.074548 90.022653 201.074548 201.074548s-90.022653 201.074548-201.074548 201.074548c-111.051896 0-201.105796-90.022653-201.105796-201.074548s90.0539-201.074548 201.105796-201.074548zm0 0" fill="url(#g)" stroke="#333" stroke-linecap="round" stroke-width="3" transform="matrix(.125012 0 0 .125012 0 26.877566)"/><path d="m31.753906 56.066406c-13.925781 0-25.140625-11.210937-25.140625-25.136718 0-.082032.003907-.164063.003907-.246094.128906 13.8125 11.292968 24.890625 25.136718 24.890625s25.003906-11.078125 25.136719-24.890625v.246094c0 13.925781-11.210937 25.136718-25.136719 25.136718zm0 0" fill-opacity=".196078"/><path d="m31.753906 5.792969c-13.925781 0-25.140625 11.210937-25.140625 25.136719 0 .082031.003907.164062.003907.246093.128906-13.8125 11.292968-24.890625 25.136718-24.890625s25.003906 11.078125 25.136719 24.890625c0-.082031 0-.164062 0-.246093 0-13.925782-11.210937-25.136719-25.136719-25.136719zm0 0" fill="#fff" fill-opacity=".392157"/><path d="m31.753906 5.605469c-14.027344 0-25.328125 11.296875-25.328125 25.324219 0 14.027343 11.300781 25.324218 25.328125 25.324218s25.324219-11.296875 25.324219-25.324218c0-14.027344-11.296875-25.324219-25.324219-25.324219zm0 .375c13.824219 0 24.949219 11.125 24.949219 24.949219 0 13.824218-11.125 24.949218-24.949219 24.949218-13.828125 0-24.953125-11.125-24.953125-24.949218 0-13.824219 11.125-24.949219 24.953125-24.949219zm0 0" fill="#212121"/><path d="m38.292969 15.703125c-3.78125-.003906-7.964844.070313-11.390625 2.730469-3.65625 2.839844-5.734375 8.226562-5.734375 17.761718v6.640626c-.011719.722656.367187 1.394531.992187 1.757812.621094.363281 1.390625.363281 2.011719 0 .625-.363281 1-1.035156.992187-1.757812v-6.640626c0-1.175781.03125-2.261718.09375-3.269531h11.789063v9.910157c-.011719.722656.367187 1.394531.988281 1.757812s1.390625.363281 2.015625 0c.621094-.363281 1-1.035156.988281-1.757812v-11.621094c.027344-.191406.027344-.382813 0-.570313v-12.945312c0-1.101563-.894531-1.996094-1.996093-1.996094-.25 0-.5 0-.75 0zm-1.246094 4.023437v9.207032h-11.328125c.726562-4.003906 2.085938-6.144532 3.632812-7.34375 1.898438-1.476563 4.585938-1.792969 7.695313-1.863282zm0 0" fill="url(#h)"/><path d="m38.292969 15.703125c-3.78125-.003906-7.964844.070313-11.390625 2.730469-3.65625 2.839844-5.734375 8.226562-5.734375 17.761718v1.003907c0-9.53125 2.078125-14.921875 5.734375-17.757813 3.425781-2.664062 7.609375-2.734375 11.390625-2.734375h.75c1.101562 0 1.996093.894531 1.996093 2v-1.007812c0-1.101563-.894531-1.996094-1.996093-1.996094-.25 0-.5 0-.75 0zm-12.371094 13.230469c-.070313.320312-.140625.65625-.203125 1.003906h11.328125v-1.003906zm15.117187 1.710937v.570313c.027344-.191406.027344-.382813 0-.570313zm0 0" fill="#fff"/><path d="m37.046875 19.714844c-3.109375.070312-5.796875.386718-7.695313 1.859375-1.546874 1.203125-2.90625 3.34375-3.632812 7.347656h.277344c.769531-3.167969 1.988281-4.960937 3.355468-6.023437 1.898438-1.472657 4.585938-1.789063 7.695313-1.859376zm3.992187 12.238281v.570313c.027344-.1875.027344-.378907 0-.570313zm-15.78125.960937c-.0625 1.007813-.09375 2.09375-.09375 3.269532v1.320312c0-1.171875.03125-2.261718.09375-3.265625h11.789063v-1.324219zm-4.089843 9.910157v1.324219c-.011719.71875.367187 1.390624.992187 1.753906.621094.363281 1.390625.363281 2.011719 0 .625-.363282 1-1.035156.992187-1.753906v-1.324219c.007813.722656-.367187 1.390625-.992187 1.753906-.621094.363281-1.390625.363281-2.011719 0-.625-.363281-1.003906-1.03125-.992187-1.753906zm15.878906 0v1.324219c-.011719.71875.367187 1.390624.988281 1.753906.621094.363281 1.390625.363281 2.015625 0 .621094-.363282 1-1.035156.988281-1.753906v-1.324219c.011719.722656-.367187 1.390625-.988281 1.753906-.625.363281-1.394531.363281-2.015625 0s-1-1.03125-.988281-1.753906zm0 0" fill-opacity=".235294"/><path d="m306.314498-89.386995c-30.247111-.031247-63.712665.562446-91.116298 21.841664-29.247207 22.71658-45.87062 65.806216-45.87062 142.080182v53.119927c-.093741 5.780698 2.93722 11.155185 7.936742 14.061157 4.968276 2.905973 11.123938 2.905973 16.092213 0 4.999523-2.905972 7.999236-8.280459 7.936742-14.061157v-53.119927c0-9.405352.249977-18.092022.749929-26.153753h94.303494v79.27368c-.093741 5.780698 2.93722 11.155185 7.905495 14.061157 4.968276 2.905973 11.123938 2.905973 16.123461 0 4.968275-2.905972 7.999236-8.280459 7.905495-14.061157v-92.959873c.218729-1.531103.218729-3.062207 0-4.562064v-103.552611c0-8.811659-7.155567-15.967225-15.967225-15.967225-1.99981 0-3.999619 0-5.999428 0zm-9.967798 32.184426v73.649217h-90.616346c5.811945-32.028192 16.685906-49.151556 29.059725-58.74439 15.186049-11.811372 36.683997-14.342381 61.556621-14.904827zm0 0" fill="none" stroke="#212121" stroke-linecap="round" stroke-linejoin="round" stroke-width="3" transform="matrix(.125012 0 0 .125012 0 26.877566)"/></svg>

<?xml version="1.0" encoding="UTF-8"?>
<svg xmlns="http://www.w3.org/2000/svg" xmlns:xlink="http://www.w3.org/1999/xlink" width="64pt" height="64pt" viewBox="0 0 64 64" version="1.1">
<defs>
<radialGradient id="radial0" gradientUnits="userSpaceOnUse" cx="450.90894" cy="189.57936" fx="450.90894" fy="189.57936" r="21.166656" gradientTransform="matrix(0.000000348341,-0.156265,-0.281277,-0.000000203077,89.046304,127.190664)">
<stop offset="0" style="stop-color:rgb(0%,0%,0%);stop-opacity:0.313725;"/>
<stop offset="0.222222" style="stop-color:rgb(0%,0%,0%);stop-opacity:0.27451;"/>
<stop offset="1" style="stop-color:rgb(0%,0%,0%);stop-opacity:0;"/>
</radialGradient>
<radialGradient id="radial1" gradientUnits="userSpaceOnUse" cx="450.90894" cy="189.57936" fx="450.90894" fy="189.57936" r="21.166656" gradientTransform="matrix(-0.000000348341,0.156265,0.281277,0.000000203077,-25.540241,-15.054962)">
<stop offset="0" style="stop-color:rgb(0%,0%,0%);stop-opacity:0.313725;"/>
<stop offset="0.222222" style="stop-color:rgb(0%,0%,0%);stop-opacity:0.27451;"/>
<stop offset="1" style="stop-color:rgb(0%,0%,0%);stop-opacity:0;"/>
</radialGradient>
<radialGradient id="radial2" gradientUnits="userSpaceOnUse" cx="450.90894" cy="189.57936" fx="450.90894" fy="189.57936" r="21.166656" gradientTransform="matrix(-0.000000348341,-0.156265,0.281277,-0.000000203077,-25.540241,127.190664)">
<stop offset="0" style="stop-color:rgb(0%,0%,0%);stop-opacity:0.313725;"/>
<stop offset="0.222222" style="stop-color:rgb(0%,0%,0%);stop-opacity:0.27451;"/>
<stop offset="1" style="stop-color:rgb(0%,0%,0%);stop-opacity:0;"/>
</radialGradient>
<radialGradient id="radial3" gradientUnits="userSpaceOnUse" cx="450.90894" cy="189.57936" fx="450.90894" fy="189.57936" r="21.166656" gradientTransform="matrix(0.000000348341,0.156265,-0.281277,0.000000203077,89.0463,-15.054964)">
<stop offset="0" style="stop-color:rgb(0%,0%,0%);stop-opacity:0.313725;"/>
<stop offset="0.222222" style="stop-color:rgb(0%,0%,0%);stop-opacity:0.27451;"/>
<stop offset="1" style="stop-color:rgb(0%,0%,0%);stop-opacity:0;"/>
</radialGradient>
<linearGradient id="linear0" gradientUnits="userSpaceOnUse" x1="255.32306" y1="233.5" x2="255.32304" y2="254.66666" gradientTransform="matrix(0.0267201,0,0,0.125012,24.930772,26.877567)">
<stop offset="0" style="stop-color:rgb(0%,0%,0%);stop-opacity:0.27451;"/>
<stop offset="1" style="stop-color:rgb(0%,0%,0%);stop-opacity:0;"/>
</linearGradient>
<linearGradient id="linear1" gradientUnits="userSpaceOnUse" x1="254" y1="-168.66667" x2="254" y2="233.5" >
<stop offset="0" style="stop-color:rgb(39.215686%,70.980392%,96.470588%);stop-opacity:1;"/>
<stop offset="1" style="stop-color:rgb(25.882353%,64.705882%,96.078431%);stop-opacity:1;"/>
</linearGradient>
<linearGradient id="linear2" gradientUnits="userSpaceOnUse" x1="960" y1="1695.1182" x2="960" y2="175.11813" gradientTransform="matrix(0.0330761,0,0,0.0330761,-0.649051,0)">
<stop offset="0" style="stop-color:rgb(74.117647%,74.117647%,74.117647%);stop-opacity:1;"/>
<stop offset="1" style="stop-color:rgb(87.843137%,87.843137%,87.843137%);stop-opacity:1;"/>
</linearGradient>
</defs>
<g id="surface1">
<path style=" stroke:none;fill-rule:nonzero;fill:url(#radial0);" d="M 36.382812 56.066406 L 41.675781 56.066406 L 41.675781 53.421875 L 36.382812 53.421875 Z M 36.382812 56.066406 "/>
<path style=" stroke:none;fill-rule:nonzero;fill:url(#radial1);" d="M 27.121094 56.066406 L 21.832031 56.066406 L 21.832031 58.714844 L 27.121094 58.714844 Z M 27.121094 56.066406 "/>
<path style=" stroke:none;fill-rule:nonzero;fill:url(#radial2);" d="M 27.121094 56.066406 L 21.832031 56.066406 L 21.832031 53.421875 L 27.121094 53.421875 Z M 27.121094 56.066406 "/>
<path style=" stroke:none;fill-rule:nonzero;fill:url(#radial3);" d="M 36.382812 56.066406 L 41.675781 56.066406 L 41.675781 58.714844 L 36.382812 58.714844 Z M 36.382812 56.066406 "/>
<path style=" stroke:none;fill-rule:nonzero;fill:url(#linear0);" d="M 27.121094 55.40625 L 36.382812 55.40625 L 36.382812 58.714844 L 27.121094 58.714844 Z M 27.121094 55.40625 "/>
<path style="fill-rule:nonzero;fill:url(#linear1);stroke-width:3;stroke-linecap:round;stroke-linejoin:miter;stroke:rgb(20%,20%,20%);stroke-opacity:1;stroke-miterlimit:4;" d="M 254.006994 -168.660675 C 365.058889 -168.660675 455.081542 -78.638022 455.081542 32.413873 C 455.081542 143.465768 365.058889 233.488421 254.006994 233.488421 C 142.955098 233.488421 52.901198 143.465768 52.901198 32.413873 C 52.901198 -78.638022 142.955098 -168.660675 254.006994 -168.660675 Z M 254.006994 -168.660675 " transform="matrix(0.125012,0,0,0.125012,0,26.877566)"/>
<path style=" stroke:none;fill-rule:nonzero;fill:rgb(0%,0%,0%);fill-opacity:0.196078;" d="M 31.753906 56.066406 C 17.828125 56.066406 6.613281 44.855469 6.613281 30.929688 C 6.613281 30.847656 6.617188 30.765625 6.617188 30.683594 C 6.746094 44.496094 17.910156 55.574219 31.753906 55.574219 C 45.597656 55.574219 56.757812 44.496094 56.890625 30.683594 C 56.890625 30.765625 56.890625 30.847656 56.890625 30.929688 C 56.890625 44.855469 45.679688 56.066406 31.753906 56.066406 Z M 31.753906 56.066406 "/>
<path style=" stroke:none;fill-rule:nonzero;fill:rgb(100%,100%,100%);fill-opacity:0.392157;" d="M 31.753906 5.792969 C 17.828125 5.792969 6.613281 17.003906 6.613281 30.929688 C 6.613281 31.011719 6.617188 31.09375 6.617188 31.175781 C 6.746094 17.363281 17.910156 6.285156 31.753906 6.285156 C 45.597656 6.285156 56.757812 17.363281 56.890625 31.175781 C 56.890625 31.09375 56.890625 31.011719 56.890625 30.929688 C 56.890625 17.003906 45.679688 5.792969 31.753906 5.792969 Z M 31.753906 5.792969 "/>
<path style=" stroke:none;fill-rule:nonzero;fill:rgb(12.941176%,12.941176%,12.941176%);fill-opacity:1;" d="M 31.753906 5.605469 C 17.726562 5.605469 6.425781 16.902344 6.425781 30.929688 C 6.425781 44.957031 17.726562 56.253906 31.753906 56.253906 C 45.78125 56.253906 57.078125 44.957031 57.078125 30.929688 C 57.078125 16.902344 45.78125 5.605469 31.753906 5.605469 Z M 31.753906 5.980469 C 45.578125 5.980469 56.703125 17.105469 56.703125 30.929688 C 56.703125 44.753906 45.578125 55.878906 31.753906 55.878906 C 17.925781 55.878906 6.800781 44.753906 6.800781 30.929688 C 6.800781 17.105469 17.925781 5.980469 31.753906 5.980469 Z M 31.753906 5.980469 "/>
<path style=" stroke:none;fill-rule:nonzero;fill:url(#linear2);" d="M 38.292969 15.703125 C 34.511719 15.699219 30.328125 15.773438 26.902344 18.433594 C 23.246094 21.273438 21.167969 26.660156 21.167969 36.195312 L 21.167969 42.835938 C 21.15625 43.558594 21.535156 44.230469 22.160156 44.59375 C 22.78125 44.957031 23.550781 44.957031 24.171875 44.59375 C 24.796875 44.230469 25.171875 43.558594 25.164062 42.835938 L 25.164062 36.195312 C 25.164062 35.019531 25.195312 33.933594 25.257812 32.925781 L 37.046875 32.925781 L 37.046875 42.835938 C 37.035156 43.558594 37.414062 44.230469 38.035156 44.59375 C 38.65625 44.957031 39.425781 44.957031 40.050781 44.59375 C 40.671875 44.230469 41.050781 43.558594 41.039062 42.835938 L 41.039062 31.214844 C 41.066406 31.023438 41.066406 30.832031 41.039062 30.644531 L 41.039062 17.699219 C 41.039062 16.597656 40.144531 15.703125 39.042969 15.703125 C 38.792969 15.703125 38.542969 15.703125 38.292969 15.703125 Z M 37.046875 19.726562 L 37.046875 28.933594 L 25.71875 28.933594 C 26.445312 24.929688 27.804688 22.789062 29.351562 21.589844 C 31.25 20.113281 33.9375 19.796875 37.046875 19.726562 Z M 37.046875 19.726562 "/>
<path style=" stroke:none;fill-rule:nonzero;fill:rgb(100%,100%,100%);fill-opacity:1;" d="M 38.292969 15.703125 C 34.511719 15.699219 30.328125 15.773438 26.902344 18.433594 C 23.246094 21.273438 21.167969 26.660156 21.167969 36.195312 L 21.167969 37.199219 C 21.167969 27.667969 23.246094 22.277344 26.902344 19.441406 C 30.328125 16.777344 34.511719 16.707031 38.292969 16.707031 C 38.542969 16.707031 38.792969 16.707031 39.042969 16.707031 C 40.144531 16.707031 41.039062 17.601562 41.039062 18.707031 L 41.039062 17.699219 C 41.039062 16.597656 40.144531 15.703125 39.042969 15.703125 C 38.792969 15.703125 38.542969 15.703125 38.292969 15.703125 Z M 25.921875 28.933594 C 25.851562 29.253906 25.78125 29.589844 25.71875 29.9375 L 37.046875 29.9375 L 37.046875 28.933594 Z M 41.039062 30.644531 L 41.039062 31.214844 C 41.066406 31.023438 41.066406 30.832031 41.039062 30.644531 Z M 41.039062 30.644531 "/>
<path style=" stroke:none;fill-rule:nonzero;fill:rgb(0%,0%,0%);fill-opacity:0.235294;" d="M 37.046875 19.714844 C 33.9375 19.785156 31.25 20.101562 29.351562 21.574219 C 27.804688 22.777344 26.445312 24.917969 25.71875 28.921875 L 25.996094 28.921875 C 26.765625 25.753906 27.984375 23.960938 29.351562 22.898438 C 31.25 21.425781 33.9375 21.109375 37.046875 21.039062 Z M 41.039062 31.953125 L 41.039062 32.523438 C 41.066406 32.335938 41.066406 32.144531 41.039062 31.953125 Z M 25.257812 32.914062 C 25.195312 33.921875 25.164062 35.007812 25.164062 36.183594 L 25.164062 37.503906 C 25.164062 36.332031 25.195312 35.242188 25.257812 34.238281 L 37.046875 34.238281 L 37.046875 32.914062 Z M 21.167969 42.824219 L 21.167969 44.148438 C 21.15625 44.867188 21.535156 45.539062 22.160156 45.902344 C 22.78125 46.265625 23.550781 46.265625 24.171875 45.902344 C 24.796875 45.539062 25.171875 44.867188 25.164062 44.148438 L 25.164062 42.824219 C 25.171875 43.546875 24.796875 44.214844 24.171875 44.578125 C 23.550781 44.941406 22.78125 44.941406 22.160156 44.578125 C 21.535156 44.214844 21.15625 43.546875 21.167969 42.824219 Z M 37.046875 42.824219 L 37.046875 44.148438 C 37.035156 44.867188 37.414062 45.539062 38.035156 45.902344 C 38.65625 46.265625 39.425781 46.265625 40.050781 45.902344 C 40.671875 45.539062 41.050781 44.867188 41.039062 44.148438 L 41.039062 42.824219 C 41.050781 43.546875 40.671875 44.214844 40.050781 44.578125 C 39.425781 44.941406 38.65625 44.941406 38.035156 44.578125 C 37.414062 44.214844 37.035156 43.546875 37.046875 42.824219 Z M 37.046875 42.824219 "/>
<path style="fill:none;stroke-width:3;stroke-linecap:round;stroke-linejoin:round;stroke:rgb(12.941176%,12.941176%,12.941176%);stroke-opacity:1;stroke-miterlimit:4;" d="M 306.314498 -89.386995 C 276.067387 -89.418242 242.601833 -88.824549 215.1982 -67.545331 C 185.950993 -44.828751 169.32758 -1.739115 169.32758 74.534851 L 169.32758 127.654778 C 169.233839 133.435476 172.2648 138.809963 177.264322 141.715935 C 182.232598 144.621908 188.38826 144.621908 193.356535 141.715935 C 198.356058 138.809963 201.355771 133.435476 201.293277 127.654778 L 201.293277 74.534851 C 201.293277 65.129499 201.543254 56.442829 202.043206 48.381098 L 296.3467 48.381098 L 296.3467 127.654778 C 296.252959 133.435476 299.28392 138.809963 304.252195 141.715935 C 309.220471 144.621908 315.376133 144.621908 320.375656 141.715935 C 325.343931 138.809963 328.374892 133.435476 328.281151 127.654778 L 328.281151 34.694905 C 328.49988 33.163802 328.49988 31.632698 328.281151 30.132841 L 328.281151 -73.41977 C 328.281151 -82.231429 321.125584 -89.386995 312.313926 -89.386995 C 310.314116 -89.386995 308.314307 -89.386995 306.314498 -89.386995 Z M 296.3467 -57.202569 L 296.3467 16.446648 L 205.730354 16.446648 C 211.542299 -15.581544 222.41626 -32.704908 234.790079 -42.297742 C 249.976128 -54.109114 271.474076 -56.640123 296.3467 -57.202569 Z M 296.3467 -57.202569 " transform="matrix(0.125012,0,0,0.125012,0,26.877566)"/>
</g>
</svg>
